src/actions/22/amarok_cart_remove.svg

<svg version="1.1" viewBox="0 0 22 22" xmlns="http://www.w3.org/2000/svg">
 <defs>
  <style id="current-color-scheme" type="text/css">.ColorScheme-Text {
        color:#363636;
      }</style>
 </defs>
 <path d="m14.834 14-0.83398 0.83398 1.666 1.666-1.666 1.666 0.83398 0.83398 1.666-1.666 1.666 1.666 0.83398-0.83398-1.666-1.666 1.666-1.666-0.83398-0.83398-1.666 1.666-1.666-1.666z" fill="#da4453"/>
 <path class="ColorScheme-Text" d="m11 3c-1.6569 0-3 1.3431-3 3h-2c-1.108 0-2 0.892-2 2v9c0 1.108 0.892 2 2 2h7v-1h-7c-0.554 0-1-0.446-1-1v-9c0-0.554 0.446-1 1-1h2v1.0879c-0.59859 0.21163-0.99911 0.77721-1 1.4121 0 0.82842 0.67157 1.5 1.5 1.5s1.5-0.67158 1.5-1.5c-8.908e-4 -0.6349-0.40141-1.2005-1-1.4121v-1.0879h4v1.0879c-0.59859 0.21163-0.99911 0.77721-1 1.4121 0 0.82842 0.67158 1.5 1.5 1.5s1.5-0.67158 1.5-1.5c-8.91e-4 -0.6349-0.40141-1.2005-1-1.4121v-1.0879h2c0.554 0 1 0.446 1 1v5h1v-5c0-1.108-0.892-2-2-2h-2c0-1.6569-1.3432-3-3-3zm0 1c1.1046 0 2 0.89543 2 2h-4c0-1.1046 0.89543-2 2-2zm-2.5 5c0.27614 0 0.5 0.22386 0.5 0.5s-0.22386 0.5-0.5 0.5-0.5-0.22386-0.5-0.5 0.22386-0.5 0.5-0.5zm5 0c0.27614 0 0.5 0.22386 0.5 0.5s-0.22386 0.5-0.5 0.5-0.5-0.22386-0.5-0.5 0.22386-0.5 0.5-0.5z" fill="currentColor"/>
</svg>

<svg xmlns="http://www.w3.org/2000/svg" viewBox="0 0 22 22">
    <path fill="#d98c8c" d="m14.834 14-.834.834 1.666 1.666L14 18.166l.834.834 1.666-1.666L18.166 19l.834-.834-1.666-1.666L19 14.834 18.166 14 16.5 15.666 14.834 14z"/>
    <path fill="currentColor" d="M11 3a3 3 0 0 0-3 3H6c-1.108 0-2 .892-2 2v9c0 1.108.892 2 2 2h7v-1H6c-.554 0-1-.446-1-1V8c0-.554.446-1 1-1h2v1.088a1.5 1.5 0 1 0 1 0V7h4v1.088a1.5 1.5 0 1 0 1 0V7h2c.554 0 1 .446 1 1v5h1V8c0-1.108-.892-2-2-2h-2a3 3 0 0 0-3-3zm0 1a2 2 0 0 1 2 2H9a2 2 0 0 1 2-2zM8.5 9a.5.5 0 1 1 0 1 .5.5 0 0 1 0-1zm5 0a.5.5 0 1 1 0 1 .5.5 0 0 1 0-1z" style="color:#050505;opacity:.7"/>
</svg>
